X:1
T:Beatus vir - Anon.
T:#
%%score [ 1 2 3 4 ]
L:1/8
Q:1/4=130
M:4/4
K:C
V:1 treble nm="Soprano" snm="S"
V:2 treble nm="Alto" snm="A"
V:3 treble-8 nm="Tenor" snm="T"
V:4 treble nm="Bass" snm="B"
V:1
 z24 | z20 ||[M:4/2][K:treble][Q:1/4=200][Q:1/4=200][Q:1/4=200][Q:1/4=200] A8 A4 A4 | A8 A4 A4 | %4
w: ||Po- tens in|ter- ra e-|
 c4 B6 A2 (A4- | A4 ^G4) A4 A4- | A4 G4 F6 F2 | F4 E4 G8 | G4 G4 F4 E4 | E8 E16 || %10
w: rit se- men e\-|* * ius: ge\-|* ne- ra- ti-|o re- cto-|rum be- ne- di-|ce- tur.|
[Q:1/4=130][Q:1/4=130][Q:1/4=130][Q:1/4=130] z24 | z20 || %12
w: ||
[M:4/2][Q:1/4=200][Q:1/4=200][Q:1/4=200][Q:1/4=200] ^G8 A6 A2 | A4 B4 c6 c2 | c4 e4 c4 (d4- | %15
w: Ex- or- tum|est in te- ne-|bris lu- men re\-|
 d2 c2 c8) B4 | z4 B4 B6 B2 | B4 c4 A4 B4 | c12 B4- | B4 (A8 ^G4) | A8 ^G16 || %21
w: * * * ctis:|mi- se- ri-|cors et mi- se-|ra- tor,|* et *|ju- stus.|
[Q:1/4=130][Q:1/4=130][Q:1/4=130][Q:1/4=130] z24 | z22 || z14 | z14 || %25
w: ||||
[M:4/2][Q:1/4=200][Q:1/4=200][Q:1/4=200][Q:1/4=200] z16 | z16 | z16 | z16 | z4 G8 G4 | %30
w: ||||Ab au-|
 G6 G2 G4 G4 | A6 A2 G4 F4 | E8 D4 D4- | D4 D4 E6 E2 | E4 ^F4 G6 G2 | G4 A8 ^G4 | A16 || %37
w: di- ti- o- ne|ma- la non ti-|me- bit, ab|* au- di- ti-|o- ne ma- la|non ti- me-|bit.|
[Q:1/4=130][Q:1/4=130][Q:1/4=130][Q:1/4=130] z22 || z22 | z20 || %40
w: |||
[M:4/2][Q:1/4=200][Q:1/4=200][Q:1/4=200][Q:1/4=200] A8 A8- | A4 A4 A8 | B4 c4 A6 A2 | G8 z4 G4 | %44
w: Di- sper\-|* sit, de-|dit pau- pe- ri-|bus: ju-|
 G4 G2 G2 A8 | G4 G4 G4 E4 | F6 F2 E8 | E6 E2 E8 | (A6 B2 c4) B4 | A8 ^G8 ||[M:3/2] A8 A4 | %51
w: sti- ti- a e-|ius ma- net in|sae- cu- lum|sae- cu- li:|cor\- * * nu|e- ius|ex- al-|
 A6 A2 A4 | A4 A4 ^G4 | A4 z4 ^G4 | A8 A4 | ^G16 || %56
w: ta- bi- tur|in glo- ri-|a, in|glo- ri-|a.|
[Q:1/4=130][Q:1/4=130][Q:1/4=130][Q:1/4=130] z22 | z20 || %58
w: ||
[M:3/2][Q:1/4=200][Q:1/4=200][Q:1/4=200][Q:1/4=200] A6 A2 A4 | ^G4 A4 A4 | F8 F4 || E8 z4 A4 | %62
w: Glo- ri- a|Pa- tri, et|Fi- li-|o, et|
 A4 G8 G4 | F8 E8- | E16 | E16 ||[Q:1/4=130][Q:1/4=130][Q:1/4=130][Q:1/4=130] z22 | z20 || %68
w: Spi- ri- tu-|i san-||cto:|||
V:2
 z24 | z20 ||[M:4/2][K:treble] E8 E4 E4 | F8 E4 E4- | E4 E4 E4 F4 | E8 E4 E4- | E4 E4 C6 C2 | %7
w: ||Po- tens in|ter- ra e\-|* rit se- men|e- ius: ge\-|* ne- ra- ti-|
 C4 C4 D8 | E4 E4 D4 B,4 | C8 B,16 || z24 | z20 ||[M:4/2] E8 E6 E2 | F4 G4 G6 G2 | G4 A4 E4 (G4- | %15
w: o re- cto-|rum be- ne- di-|ce- tur.|||Ex- or- tum|est in te- ne-|bris lu- men re\-|
 G4 ^F4) G8 | z4 G4 G6 G2 | G4 G4 F4 F4 | G8 G8 | E16 | E8 E16 || z24 | z22 || z14 | z14 || %25
w: * * ctis:|mi- se- ri-|cors et mi- se-|ra- tor,|et|ju- stus.|||||
[M:4/2] B,12 B,4 | C6 C2 C4 C4 | B,8 E8 | C4 C4 D8 | E4 E8 E4 | D6 D2 D4 E4 | F6 F2 D4 D4- | %32
w: In me-|mo- ri- a ae-|ter- na|e- rit ju-|stus: ab au-|di- ti- o- ne|ma- la non ti\-|
 D4 ^C4 D4 F4- | F4 F4 E6 E2 | E4 D4 D4 D4 | E4 E4 E8 | E16 || z22 || z22 | z20 ||[M:4/2] E8 F8- | %41
w: * me- bit, ab|* au- di- ti-|o- ne ma- la|non ti- me-|bit.||||Di- sper\-|
 F4 F4 E8 | G4 G4 F6 F2 | E8 z4 E4 | E4 E2 E2 F8 | E4 E4 D4 ^C4 | D6 D2 C8 | B,6 B,2 C8 | E12 E4 | %49
w: * sit, de-|dit pau- pe- ri-|bus: ju-|sti- ti- a e-|ius ma- net in|sae- cu- lum|sae- cu- li:|cor- nu|
 E8 E8 ||[M:3/2] E8 E4 | F6 F2 F4 | E4 E4 E4 | E4 z4 E4 | E8 E4 | E16 || z22 | z20 || %58
w: e- ius|ex- al-|ta- bi- tur|in glo- ri-|a, in|glo- ri-|a.|||
[M:3/2] E6 E2 E4 | E4 E4 E4 | D8 D4 || ^C8 z4 E4 | F4 D8 E4 | D8 (C8 | B,8 C8) | B,16 || z22 | %67
w: Glo- ri- a|Pa- tri, et|Fi- li-|o, et|Spi- ri- tu-|i san\-||cto:||
 z20 || %68
w: |
V:3
"^Beatus vir""^Anonymous\n(C16th?)""^Psalm 112 (Vulgate 111)" A2 G2 A8 G2 A2 B2 A2 A4 | %1
w: Be- a- tus~vir~qui ti- met Do- mi- num:|
 A8 G2 A2 B2 G2 E4 ||[M:4/2][K:treble-8] c8 c4 c4 | d8 c8 | A4 B4 c4 d4 | B8 A4 c4- | c4 B4 A6 A2 | %7
w: in~mandatis~e- ius vo- let ni- mis.|Po- tens in|ter- ra|e- rit se- men|e- ius: ge\-|* ne- ra- ti-|
 A4 c8 B4 | c4 c4 A4 ^G4 | A8 ^G16 || A2 G2 A8 G2 A2 B2 A2 A4 | A8 G2 A2 B2 G2 E4 || %12
w: o re- cto-|rum be- ne- di-|ce- tur.|Glo- ri- a~et~divitiae in do- mo e- ius:|et~justitia~ejus~manet~in~sae- cu- lum sae- cu- li.|
[M:4/2][K:treble-8] B8 ^c6 c2 | d4 d4 e6 e2 | e4 A8 G4 | c8 d8 | z4 d4 d6 d2 | d4 e4 c4 d4 | %18
w: Ex- or- tum|est in te- ne-|bris lu- men|re- ctis:|mi- se- ri-|cors et mi- se-|
 e8 d8 | (c8 B8) | c8 B16 || A2 G2 A8 G2 A2 B2 A2 A4 | A8 G2 A2 B2 G2 E2 E4 || A2 G2 A2 B2 A2 A4 | %24
w: ra- tor,|et *|ju- stus.|Ju- cun- dus~homo~qui~misere- tur et com- mo- dat:|disponet~sermones~su- os in ju- di- ci- o.|Qui- a in ae- ter- num|
 A2 G2 A2 B2 G2 E4 ||[M:4/2][K:treble-8] ^G12 G4 | A6 A2 A4 A4 | =G12 c4 | A4 c8 B4 | c4 c8 c4 | %30
w: non com- mo- ve- bi- tur.|In me-|mo- ri- a ae-|ter- na|e- rit ju-|stus: ab au-|
 B6 B2 B4 c4 | F6 F2 G4 D4 | A8 D4 A4- | A4 A4 A6 A2 | A4 A4 B6 B2 | c4 c4 B8 | A16 || %37
w: di- ti- o- ne|ma- la non ti-|me- bit, ab|* au- di- ti-|o- ne ma- la|non ti- me-|bit.|
 A8 G2 A2 B2 G2 E2 E4 || A2 G2 A8 G2 A2 B2 A4 | A8 G2 A2 B2 G2 E4 ||[M:4/2][K:treble-8] ^c8 d8- | %41
w: Paratum~cor~eius~spe- ra- re in Do- mi- no.|~Con- fir- matum est cor e- ius:|non~commovebitur~donec~despiciat~i- ni- mi- cos su- os.|Di- sper\-|
 d4 d4 =c8 | d4 e4 c6 c2 | c8 z4 c4 | c4 c2 c2 c8 | c4 c4 B4 A4 | A6 A2 A4 A4- | A4 ^G4 A8 | %48
w: * sit, de-|dit pau- pe- ri-|bus: ju-|sti- ti- a e-|ius ma- net in|sae- cu- lum sae\-|* cu- li:|
 (c6 B2 A4) B4 | c8 B8 ||[M:3/2] c8 c4 | A6 A2 A4 | c4 B4 B4 | c4 z4 B4 | c8 c4 | B16 || %56
w: cor\- * * nu|e- ius|ex- al-|ta- bi- tur|in glo- ri-|a, in|glo- ri-|a.|
 A2 G2 A8 G2 A2 B2 A4 | A8 G2 A2 B2 G2 E4 ||[M:3/2][K:treble-8] c6 c2 c4 | B4 c4 c4 | A8 A4 || %61
w: Pec- ca- tor~videbit,~et~irascetur,~dentibus~suis~fremet et ta- be- scet:|desiderium~pecca- to- rum pe- ri- bit.|Glo- ri- a|Pa- tri, et|Fi- li-|
 A8 z4 c4 | d4 B6 B2 c4 | A8 A4 (A4- | A2 ^G2 G2 ^FG A8) | ^G16 || A2 G2 A8 G2 A2 B2 A4 | %67
w: o, et|Spi- ri- tu- i|san- cto, san\-||cto:|Si- cut erat~in~principio,~et nunc et sem- per:|
 A8 G2 A2 B2 G2 E4 || %68
w: et~in~saecula~sae- cu- lo- rum. A- men.|
V:4
 z24 | z20 ||[M:4/2][K:bass] A,8 A,4 A,4 | D,8 A,,4 A,4- | A,4 ^G,4 A,4 D,4 | E,8 A,,4 A,4- | %6
w: ||Po- tens in|ter- ra e\-|* rit se- men|e- ius: ge\-|
 A,4 E,4 F,6 F,2 | F,4 A,4 G,8 | C,4 C,4 D,4 E,4 | A,,8 E,16 || z24 | z20 ||[M:4/2] E,8 A,6 A,2 | %13
w: * ne- ra- ti-|o re- cto-|rum be- ne- di-|ce- tur.|||Ex- or- tum|
 D,4 G,4 C,6 C,2 | C,4 C8 B,4 | A,8 G,8 | z4 G,4 G,6 G,2 | G,4 E,4 F,4 D,4 | %18
w: est in te- ne-|bris lu- men|re- ctis:|mi- se- ri-|cors et mi- se-|
 (C,2 D,2 E,2 F,2) G,4 G,,4 | (A,,2 B,,2 C,2 D,2 E,8 | A,,8) E,16 || z24 | z22 || z14 | z14 || %25
w: ra\- * * * tor, et|ju\- * * * *|* stus.|||||
[M:4/2] E,12 E,4 | A,,6 A,,2 A,,4 A,,4 | E,8 C,8 | F,4 A,4 G,8 | C,16 | z16 | z16 | z8 z4 D,4- | %33
w: In me-|mo- ri- a ae-|ter- na|e- rit ju-|stus:|||ab|
 D,4 D,4 ^C,6 C,2 | ^C,4 D,4 G,,6 G,,2 | C,4 A,,4 E,8 | A,,16 || z22 || z22 | z20 || %40
w: * au- di- ti-|o- ne ma- la|non ti- me-|bit.||||
[M:4/2] A,8 D,8- | D,4 D,4 A,8 | G,4 E,4 F,6 F,2 | C,8 z4 C,4 | C,4 C,2 C,2 F,8 | C,4 C,4 G,4 A,4 | %46
w: Di- sper\-|* sit, de-|dit pau- pe- ri-|bus: ju-|sti- ti- a e-|ius ma- net in|
 D,6 D,2 A,,8 | E,6 E,2 A,,8 | A,12 ^G,4 | A,8 E,8 ||[M:3/2] A,8 C,4 | D,6 D,2 D,4 | A,4 E,4 E,4 | %53
w: sae- cu- lum|sae- cu- li:|cor- nu|e- ius|ex- al-|ta- bi- tur|in glo- ri-|
 A,,4 z4 E,4 | A,,8 A,,4 | E,16 || z22 | z20 ||[M:3/2] A,6 A,2 A,4 | E,4 A,4 A,,4 | D,8 D,4 || %61
w: a, in|glo- ri-|a.|||Glo- ri- a|Pa- tri, et|Fi- li-|
 A,,8 z4 A,4 | D,4 G,6 G,2 C,4 | (D,2 E,2 F,2 G,2 A,8 | E,8 A,,8) | E,16 || z22 | z20 || %68
w: o, et|Spi- ri- tu- i|san\- * * * *||cto:|||

